X:1
T:Title
%%score { ( 1 3 ) | ( 2 4 ) }
L:1/8
M:4/4
K:Ab
V:1 treble nm="Grand Piano"
V:3 treble 
V:2 bass 
V:4 bass 
V:1
 z8[Q:1/4=88] | .E2 z2 .[CF]2 z2 | EEFG A2 z2 | cccc cAGA | B6 z2 | dddd dBcd | %6
 eeee [CAe]2 [EA][FB] | ccdc cBFG |[M:3/4] A-[FA-] [EA-][DA-] [CA]2 |[M:1/4] [Ec]2 | %10
[M:4/4] [Fd][Fd][Fd][Fd] [FA]2 [=EB]2 | c-[Ec-][Fc-][Cc-] [Ec]2 z2 | eeec AF[=DG][DA] | B6 z2 | %14
 ccBc d3 [Gd] | ddcd .e2 .[_Ge]2 | [Fd][DF][EG][FA] [Ec]2 [DB]2 |[M:7/8] A-A-A- A- A3 |] %18
V:2
 z4 z2 CD | z E=DE z E C2 | [A,C]2 [G,D]2 z2[K:treble] AB | [A,,A,]4 F2 =D2 | [G,E]A,B,C D2 z2 | %5
 [E,B,]4 B,-[D,B,][C,A,][B,,B,] | [A,,CA]4 A,,2 C,D, | E2[K:treble] FE[K:bass] [E,G,D]4 | %8
[M:3/4] A,,-[A,,-A,] [A,,-G,][A,,-F,] [A,,E,]2 |[M:1/4] [A,,A,]2 | %10
[M:4/4] [D,A,][D,A,][D,A,][D,A,] [D,A,]2 [D,A,]2 | A,4 z4 | %12
 [A,CA][A,CA][A,CA][K:bass][A,E] [F,A,C][F,A,C][B,,F,][B,,B,] | .[G,E]2 z2 z4 | %14
 [A,E][A,E][G,B,E][A,EA] [B,EG]3 [E,E] | [B,EG][B,EG][A,EA][B,EG] .[CEA]2[K:bass] .[C,A,]2 | %16
 [D,A,][D,A,][D,A,][D,A,] [E,A,]2 [E,G,]2 |[M:7/8] z G,F, =E, _E,3 |] %18
V:3
 x8 | [A,C]4 A,3- [A,D] | z4 [A,C]4 | E4 z4 | z FGA G2 Bc | G4 G2 E2 | z4 z2 A,2 | x8 | %8
[M:3/4] .C2 z2 z2 |[M:1/4] x2 |[M:4/4] x8 | .E2 z2 z4 | x8 | z FGA G2 z2 | x8 | x8 | x8 | %17
[M:7/8] [A,C]ED A, C3 |] %18
V:4
 x8 | A,,4 A,,4 | E,4 A,,4[K:treble] | z4 [F,A,]4 | E,6 z2 | z4 .E,2 z2 | x8 | %7
 [E,A,]4[K:treble][K:bass] z4 |[M:3/4] .E,2 z2 z2 |[M:1/4] x2 |[M:4/4] x8 | A,,A,,C,E, A,2 z2 | %12
 x3[K:bass] x5 | E,-[E,-A,][E,-B,][E,-C] [E,D]2 z2 | x8 | x6[K:bass] x2 | x8 | %17
[M:7/8] A,,-A,,-A,,- A,,- A,,3 |] %18

